X:19
T:Itron Varia Rumengol
M:6/8
L:1/8
K:Bb
FGA|B2F F2E|D3 DCD|F2E C2G|F3 FGA|B2F F2E|D3 DCD|F2E D2C|
B,3 FGA|B3 GAB|c3 BAG|F2F B2c|d3 FGA|B3 GAB|c3 BAG|F2B A2c|B3||
